X:1
T:Filiae Ierusalem - Gabrieli
T:#
%%score [ 1 2 3 4 ]
L:1/8
Q:1/4=192
M:none
K:C
V:1 treble nm="Soprano" snm="S"
V:2 treble nm="Alto" snm="A"
V:3 treble-8 nm="Tenor" snm="T"
V:4 bass nm="Bass" snm="B"
V:1
"^Filiae Ierusalem" z16 | z16 | z16 | z16 |"^Andrea Gabrieli\n(c. 1510-1586)" z16 | z8 d8- | %6
w: |||||Fi\-|
[M:4/2] d4 G4 G8 | d8 (e6 d2 | c4) c4 B8 | z4 c4 d8 | G4 A8 (d2 c2 | B2 A2 B4) A8- | A16 | z16 | %14
w: * li- ae|le- ru\- *|* sa- lem,|ve- ni-|te, ve- ni\- *|* * * te|||
 z8 z4 d4- | d4 d4 d4 c4 | d4 d4 e8 | d8 ^c4 d4- | d4 ^c4 d4 B4- | B4 A4 B4 c4 | %20
w: et|* vi- de- te|Mar- ty- res|cum co- ro\-|* * nis, et|* vi- de- te|
 A4 B4 (c2 B2 A2 G2 | A4) G4 ^F4 (G4- | G4 ^F4) G8- | G16 | z16 | z4 d8 d4 | e4 e4 (f6 e2 | %27
w: Mar- ty- res * * *|* cum co- ro\-|* * nis,|||qui- bus|co- ro- na\- *|
 d4) (G2 A2 !courtesy!=B2 c2 d4) | B4 B4 c4 B4 | d16 | z16 | z8 z4 f4 | f8 e4 c4 | e4 e4 (d6 cB | %34
w: * vit * * * *|e- os Do- mi-|nus||in|di- e so-|le- mni- ta\- * *|
 c2 d2 e8 d4) ||[M:3/2][Q:1/4=216] e12 | z12 | f8 e4 | d8 ^c4 | %39
w: |tis||et lae-|ti- ti-|
[M:3/2][Q:1/4=216][Q:1/4=216][Q:1/4=216][Q:1/4=216] d8 z4 | z12 | e8 d4 | c8 B4 || c4 e4 c4 d4 | %44
w: ae,||et lae-|ti- ti-|ae. Al- le- lu-|
 e8 (d6 c2 | B4) c4 A8 |[M:4/2] B4 G4 A4 B4 | c8 B4 (A4- | A2 G2 G8) ^F4 | G8 z8 | z4 G4 c4 A4 | %51
w: ia, al\- *|* le- lu-|ia, al- le- lu-|ia, al- le\-|* * * lu-|ia,|al- le- lu-|
 G4 B4 e4 d4 | B4 e4 c4 d4 | e8 (d6 c2 | B4) c4 A8 | B4 G4 A4 B4 | %56
w: ia, al- le- lu-|ia, al- le- lu-|ia, al\- *|* le- lu-|ia, al- le- lu-|
 c8[Q:1/4=214] B4[Q:1/4=210] (A4- |[Q:1/4=207] A2[Q:1/4=205] G2[Q:1/4=200] G8)[Q:1/4=195] ^F4 | %58
w: ia, al- le\-|* * * lu-|
[Q:1/4=186] G16- |[Q:1/4=180] !fermata!G16 |] %60
w: ia.||
V:2
 z16 | z16 | z16 | z16 | z8 z4 G4 | A8 D8- |[M:4/2] D8 z8 | G12 C4 | C8 G8 | (A6 G2 F4) F4 | %10
w: ||||ve-|ni- te,||Fi- li-|ae le-|ru\- * * sa-|
 E8 z4 F4 | G8 C4 F4 | E8 D4 A4- | A4 A4 A4 G4 | A4 A4 B4 B4- | B4 A4 B4 G4 | A4 B4 c4 G4- | %17
w: lem, ve-|ni- te, ve-|ni- te et|* vi- de- te|Mar- ty- res, et|* vi- de- te|Mar- ty- res cum|
 G4 G4 A8 | A8 z4 G4- | G4 A4 G4 G4 | F4 D4 E4 C4- | C4 C4 D8- | D8 (B,6 A,2 | G,8) z8 | z16 | %25
w: * co- ro-|nis, et|* vi- de- te|Mar- ty- res cum|* co- ro\-|* nis, *|||
 z8 z4 G4- | G4 G4 A4 A4 | (_B6 A2 G4) ^F4 | G4 G4 E4 E4 | (D2 E2 F2 G2 A8- | A8) z4 _B4 | _B8 A8 | %32
w: qui\-|* bus co- ro-|na\- * * vit|e- os Do- mi-|nus * * * *|* in|di- e,|
 z4 A4 A8 | G4 E4 G4 G4 | (A6 G2 F8) ||[M:3/2] E12 | z12 | A8 G4 | (F4 G4) E4 |[M:3/2] D8 z4 | %40
w: in di-|e so- le- mni-|ta\- * *|tis||et lae-|ti\- * ti-|ae,|
 z12 | G8 G4 | (G4 A4) G4 || G4 G4 A4 B4 | c8 B4 (A4- | A2 G2 G8) ^F4 |[M:4/2] G4 E4 =F4 F4 | %47
w: |et lae-|ti\- * ti-|ae. Al- le- lu-|ia, al- le\-|* * * lu-|ia, al- le- lu-|
 G4 G8 F4 | E8 D8 | z4 E4 C4 D4 | E4 E4 C4 D4 | E4 G4 G4 ^F4 | G4 G4 A4 B4 | c8 B4 (A4- | %54
w: ia, al- le-|lu- ia,|al- le- lu-|ia, al- le- lu-|ia, al- le- lu-|ia, al- le- lu-|ia, al- le\-|
 A2 G2 G8) ^F4 | G4 E4 =F4 F4 | G8 z4 F4 | E8 D8 | D4 D4 C4 E4 | !fermata!D16 |] %60
w: * * * lu-|ia, al- le- lu-|ia, al-|le- lu-|ia, al- le- lu-|ia.|
V:3
 d12 G4 | G8 d8 | (e6 d2 c4) c4 | B8 z4 c4 | d8 G4 c4- | c4 A4 (B6 AG) | %6
w: Fi- li-|ae le-|ru\- * * sa-|lem, ve-|ni- te, Fi\-|* li- ae * *|
[M:4/2][K:treble-8] B4 B8 c4- | c4 B4 c4 G4 | A8 G8 | z16 | z4 c4 d8 | G4 d4 (f2 e2 d4- | %12
w: * le- ru\-|* sa- lem, ve-|ni- te,||ve- ni-|te, ve- ni- * *|
 d4 ^c4) d4 f4- | f4 e4 f4 d4 | e4 ^f4 g4 g4- | g4 ^f4 g4 e4 | =f4 g4 c8 | z4 g8 f4 | e8 d8 | %19
w: * * te et|* vi- de- te|Mar- ty- res, et|* vi- de- te|Mar- ty- res|cum co-|ro- nis,|
 d6 d2 d4 e4 | d4 d4 c8 | z4 c8 B4 | A8 G4 d4- | d4 d4 e4 e4 | (f6 e2 d4) (G2 A2) | %25
w: et vi- de- te|Mar- ty- res|cum co-|ro- nis, qui\-|* bus co- ro-|na\- * * vit *|
 (B2 c2 d4) B4 B4 | c4 B4 d8 | z16 | z4 g4 g8 | f4 d4 f4 f4 | (e6 dc d2 e2 f4-) | (f4 e4) f8- | %32
w: * * * e- os|Do- mi- nus||in di-|e so- le- mni-|ta\- * * * * *|* * tis|
 f8 z8 | z16 | z16 ||[M:3/2] c8 B4 | d8 ^c4 | d8 z4 | z12 |[M:3/2][K:treble-8] B8 A4 | c8 B4 | %41
w: |||et lae-|ti- ti-|ae,||et lae-|ti- ti-|
 c8 d4 | e4 d4 d4 || c4 c4 f4 d4 | (c2 d2 e2 f2 g4) d4 | (e4 c4) d8 | %46
w: ae, et|lae- ti- ti-|ae. Al- le- lu-|ia, * * * * al-|le\- * lu-|
[M:4/2][K:treble-8] G4 c4 c4 d4 | e8 (d6 c2 | B4) c4 A8 | G4 c4 A4 B4 | c8 z8 | z4 G4 c4 A4 | %52
w: ia, al- le- lu-|ia, al\- *|* le- lu-|ia, al- le- lu-|ia,|al- le- lu-|
 G4 c4 f4 d4 | (c2 d2 e2 f2 g4) d4 | (e4 c4) d8 | G4 c4 c4 d4 | e8 (d6 c2 | B4) c4 A8 | %58
w: ia, al- le- lu-|ia, * * * * al-|le\- * lu-|ia, al- le- lu-|ia, al\- *|* le- lu-|
 G4 B4 e4 c4 | !fermata!B16 |] %60
w: ia, al- le- lu-|ia.|
V:4
 z16 | z8 G,8- | G,4 C,4 C,8 | G,8 (A,6 G,2 | F,4) F,4 E,8 | z4 F,4 G,8- |[M:4/2] G,16 | G,8 C,8 | %8
w: |Fi\-|* li- ae|le- ru\- *|* sa- lem,|ve- ni\-||* te,|
 z4 C4 D8 | A,8 z8 | z16 | z4 G,4 A,8- | A,8 D,4 D4- | D4 ^C4 D4 B,4 | =C4 D4 G,8 | z16 | %16
w: ve- ni-|te,||ve- ni\-|* te et|* vi- de- te|Mar- ty- res||
 z8 z4 C4- | C4 B,4 A,8- | A,8 D4 G,4- | G,4 ^F,4 G,4 E,4 | =F,4 G,4 C,4 F,4- | F,4 E,4 D,8- | %22
w: cum|* co- ro\-|* nis, et|* vi- de- te|Mar- ty- res cum|* co- ro\-|
 D,8 G,8 | z4 G,8 G,4 | A,4 A,4 (_B,6 A,2) | G,4 ^F,4 G,4 G,4 | E,4 E,4 (D,6 E,F, | G,8) z8 | z16 | %29
w: * nis,|qui- bus|co- ro- na\- *|* vit e- os|Do- mi- nus * *|||
 z4 D4 D8 | C4 A,4 _B,4 B,4 | G,8 F,4 D,4 | D8 C4 A,4 | C4 C4 B,8 | A,8 z8 ||[M:3/2] A,8 G,4 | %36
w: in di-|e so- le- mni-|ta- tis, in|di- e so-|le- mni- ta-|tis|et lae-|
 (F,4 G,4) E,4 | D,8 z4 | z12 |[M:3/2] G,8 F,4 | (E,4 F,4) D,4 | C,4 C,4 B,,4 | (C,4 F,4) G,4 || %43
w: ti\- * ti-|ae,||et lae-|ti\- * ti-|ae, et lae-|ti\- * ti-|
 C,8 z8 | z16 | z16 |[M:4/2] z4 C,4 F,4 D,4 | (C,2 D,2 E,2 F,2 G,4) D,4 | (E,4 C,4) D,8 | %49
w: ae.|||Al- le- lu-|ia, * * * * al-|le\- * lu-|
 G,4 C,4 F,4 D,4 | C,8 z8 | z4 E,4 C,4 D,4 | E,8 z8 | z16 | z16 | z4 C,4 F,4 D,4 | %56
w: ia, al- le- lu-|ia,|al- le- lu-|ia,|||al- le- lu-|
 (C,2 D,2 E,2 F,2 G,4) D,4 |"^5-" E,4 C,4 D,8 | G,4 G,4 C,4 C,4 | !fermata!G,16 |] %60
w: ia, * * * * al-|le- * lu-|ia, al- le- lu-|ia.|

